outputs/icons/file/upload_file_sharp.svg

<svg xmlns="http://www.w3.org/2000/svg" width="1200" height="1200" fill="none"><g clip-path="url(#a)"><path fill="#000" d="M700 100H200v1000h800V400zm-50 650v200H550V750H400l200.5-200L800 750zm0-300V175l275 275z"/></g><defs><clipPath id="a"><path fill="#fff" d="M0 0h1200v1200H0z"/></clipPath></defs></svg>

<svg width="1200" height="1200" viewBox="0 0 1200 1200" fill="none" xmlns="http://www.w3.org/2000/svg"><g clip-path="url(#clip0_124_952)"><path d="M700 100H200V1100H1000V400L700 100ZM650 750V950H550V750H400L600.5 550L800 750H650ZM650 450V175L925 450H650Z" fill="black"/></g><defs><clipPath id="clip0_124_952"><path width="24" fill="white" d="M0 0H1200V1200H0V0z"/></clipPath></defs></svg>
